black/svg/1F684.svg

<svg id="emoji" viewBox="0 0 72 72" xmlns="http://www.w3.org/2000/svg">
  <g id="line">
    <g>
      <path fill="none" stroke="#000" stroke-linecap="round" stroke-miterlimit="10" stroke-width="2" d="M67,36.5H41.8438a1.2857,1.2857,0,0,1-.69-2.37l7.2593-4.62a12.8567,12.8567,0,0,1,6.9026-2.01H67"/>
      <path fill="none" stroke="#000" stroke-linecap="round" stroke-miterlimit="10" stroke-width="2" d="M15.6108,36.5h9.502a12.857,12.857,0,0,0,6.9027-2.01L39.2748,29.87a1.2857,1.2857,0,0,0-.69-2.37H29.1108"/>
      <path fill="none" stroke="#000" stroke-linecap="round" stroke-miterlimit="10" stroke-width="2" d="M67,48H8.2691A3,3,0,0,1,6.605,42.5038L31.5537,25.8714A23.3767,23.3767,0,0,1,44.521,21.9452H67"/>
      <path fill="none" stroke="#000" stroke-linecap="round" stroke-miterlimit="10" stroke-width="2" d="M67,53.5H12.652a1.0042,1.0042,0,0,1-.5031-1.8732L18.4133,48"/>
      <path fill="none" stroke="#000" stroke-linecap="round" stroke-miterlimit="10" stroke-width="2" d="M66.9321,44H18.64a.5714.5714,0,0,1-.3068-1.0535L21.56,40.8934A5.7141,5.7141,0,0,1,24.6278,40H66.9321"/>
    </g>
  </g>
</svg>

<svg id="emoji" viewBox="0 0 72 72" xmlns="http://www.w3.org/2000/svg">
  <g id="line">
    <path fill="none" stroke="#000" stroke-linecap="round" stroke-miterlimit="10" stroke-width="2" d="m67 36.5h-25.16a1.286 1.286 0 0 1-0.69-2.37l7.259-4.62a12.86 12.86 0 0 1 6.903-2.01h11.68"/>
    <path fill="none" stroke="#000" stroke-linecap="round" stroke-miterlimit="10" stroke-width="2" d="m15.61 36.5h9.502a12.86 12.86 0 0 0 6.903-2.01l7.259-4.62a1.286 1.286 0 0 0-0.69-2.37h-9.474"/>
    <path fill="none" stroke="#000" stroke-linecap="round" stroke-miterlimit="10" stroke-width="2" d="m67 48h-58.73a3 3 0 0 1-1.664-5.496l24.95-16.63a23.38 23.38 0 0 1 12.97-3.926h22.48"/>
    <path fill="none" stroke="#000" stroke-linecap="round" stroke-miterlimit="10" stroke-width="2" d="m67 53.5h-54.35a1.004 1.004 0 0 1-0.5031-1.873l6.264-3.627"/>
    <path fill="none" stroke="#000" stroke-linecap="round" stroke-miterlimit="10" stroke-width="2" d="m66.93 44h-48.29a0.5714 0.5714 0 0 1-0.3068-1.054l3.227-2.053a5.714 5.714 0 0 1 3.068-0.8934h42.3"/>
  </g>
</svg>
